!!!OTL@@DE: Der Rheinweinzecher
!!!COM: Fischer, Ludwig
!!!ODT: 1802
!!!OMD: Moderato
!!!LYR: M&uuml;chler, Carl
!!!LDT: 1802
!!!OCL: Erk, Ludwig
!!!GCO: Deutscher Liederschatz, Band 1
**kern	**kern	**kern
*staff3	*staff2	*staff1
*Ipiano	*Ipiano	*Ivox
*>[A,A,B]	*>[A,A,B]	*>[A,A,B]
*>norep[A,B]	*>norep[A,B]	*>norep[A,B]
*>A	*>A	*>A
*clefF4	*clefG2	*clefG2
*k[b-]	*k[b-]	*k[b-]
*F:	*F:	*F:
*met(C)	*met(C)	*met(C)
*M4/4	*M4/4	*M4/4
*MM104	*MM104	*MM104
4r	4c/	4c/
=1	=1	=1
4FF/ 4F/	4r	4f/
4r	4A/ 4c/ 4f/	4F/
4F\	4r	4a/
4r	4c/ 4f/ 4a/	4F/
=2	=2	=2
4AA\ 4A\	4r	4.cc\
4r	4c/ 4f/ 4cc/	.
.	.	8dd\
4A\	4r	4.cc\
4r	4c/ 4f/	.
.	.	8a/
=3	=3	=3
4GG/ 4G/	4r	(8cc\L
.	.	8b-\J)
4r	4c/ 4e/ 4b-/	(8g/L
.	.	8e/J)
4C/	4r	4c/
4r	4B-/ 4e/ 4g/	(8d/L
.	.	8e/J)
=4	=4	=4
4FF/ 4F/	4r	4f/
4r	4A/ 4c/ 4f/	4F/
4F\	4r	4r
=:|!	=:|!	=:|!
*>B	*>B	*>B
4r	4f/ 4a/	4cc\
=5	=5	=5
4CC/ 4C/	4r	(8cc\L
.	.	8b-\J)
4r	4c/ 4e/ 4b-/	(8g/L
.	.	8e/J)
4CC/ 4C/	4r	4.c/
4r	4G/ 4c/ 4e/	.
.	.	8B-/
=6	=6	=6
4FFF/ 4FF/	4r	(8A/L
.	.	8c/J)
4r	4A/ 4c/ 4f/	(8f/L
.	.	8a/J)
4AAA/ 4AA/	4r	4.cc\
4r	4F/ 4c/ 4f/	.
.	.	8f/
=7	=7	=7
4BBB-/ 4BB-/	4r	4.dd\
4r	4F/ 4B-/ 4d/	.
.	.	8a/
4GGG/ 4GG/	4r	(8cc\L
.	.	8b-\J)
4r	4G/ 4B-/ 4d/	(8a/L
.	.	8g/J)
=8	=8	=8
4CC/ 4C/	4r	4f/
4r	4G/ 4c/ 4e/	4e/
4CC/ 4C/	4r	4r
4r	4G/ 4B-/ 4c/ 4e/	4c/
=9	=9	=9
4FF/ 4F/	4r	4f/
4r	4A/ 4c/ 4f/	4F/
4EE-/ 4E-/	4r	4a/
4r	4c/ 4f/ 4a/	4F/
=10	=10	=10
4DD/ 4D/	4r	4.B-/
4r	4d/ 4f/ 4b-/	.
.	.	8dd\
4BBB-/ 4BB-/	4r	4ff\
4r	4d/ 4f/ 4b-/	(8ee\L
.	.	8dd\J)
=11	=11	=11
4CC/ 4C/	4r	4.cc\
4r	4c/ 4f/ 4a/	.
.	.	8a/
4CC/ 4C/	4r	4b-\
4C/	4B-/ 4c/ 4e/	4e/
=12	=12	=12
4FF/ 4C/	4A/ 4c/ 4f/	4f/
4FF/ 4F/	4A/ 4c/ 4f/	4F/
4r	4r	4r
==	==	==
*-	*-	*-
!!!ENC: Craig Stuart Sapp
!!!END: 2004/06/28/
!!!EFL: 190/651
